X:1
T:Dublin Jack of All Trades
M:2/4
L:1/8
K:G
 dc| BG GG| DG GG| FG AB|c-A dc| BG GG| DG GG| Ad cA| GG B2| dg gg|\
 de ff| d c/2c/2 AG|F-G AA| BB cA| GG Ac| Bd AF| GG dc| BG GG|D-G GG|\
 FG AB| c2 dc| BG GG| DG GG| Ad cA| GG||
